!!!OTL: Abgewiesener Knabe Ist das nicht der Morgenstern,
!!!ARE: Europa, Mitteleuropa, Lothringen, Weiler ( Kr. Forbach )
!!!SCT: D0011
!!!YEM: Copyright 1995, estate of Helmut Schaffrath.
**kern
*ICvox
*Ivox
*M6/8
*k[b-e-a-d-]
*f:
{8c
=1
8f
8g
8a-
8g
8a-
8b-
=2
8g
4f
4r}
{16cc
16b-
=3
8cc
8b-
8a-
8f
8b-
8a-
=4
4.g
4r}
{8a-
=5
8g
8a-
8b-
8cc
8b-
8cc
=6
4f
8e-
4.e-}
=7
{8.f
16g
8a-
8.b-
16a-
8g
=8
8a-
8g
4f
8r}
==
!!!AGN: Kilt - Lied, abgewiesener Knabe
!! in der zweiten Zeile rhythmisch korrigiert
!!!ONB: ESAC (Essen Associative Code) Database: DVA
!!!AMT: compound duple
!!!AIN: vox
!!!EED: Helmut Schaffrath
!!!EEV: 1.0
*-
